svg/color-check.svg

<?xml version="1.0" encoding="UTF-8"?>
<svg xmlns="http://www.w3.org/2000/svg" xmlns:xlink="http://www.w3.org/1999/xlink" width="320px" height="320px" viewBox="0 0 320 320" version="1.1">
<g id="surface1">
<path style=" stroke:none;fill-rule:nonzero;fill:rgb(0%,0%,0%);fill-opacity:1;" d="M 21.5 0 C 9.679688 0 0 9.679688 0 21.5 L 0 298.5 C 0 310.320312 9.679688 320 21.5 320 L 298.5 320 C 310.320312 320 320 310.320312 320 298.5 L 320 21.5 C 320 9.679688 310.320312 0 298.5 0 Z M 160 48 C 221.855469 48 272 98.144531 272 160 C 272 221.855469 221.855469 272 160 272 C 98.144531 272 48 221.855469 48 160 C 48 98.144531 98.144531 48 160 48 Z M 160 48 "/>
<path style=" stroke:none;fill-rule:nonzero;fill:rgb(0%,0%,0%);fill-opacity:1;" d="M 256 160 C 256 213.019531 213.019531 256 160 256 C 106.980469 256 64 213.019531 64 160 C 64 106.980469 106.980469 64 160 64 C 213.019531 64 256 106.980469 256 160 Z M 256 160 "/>
</g>
</svg>

<?xml version="1.0" encoding="UTF-8" standalone="no"?>
<!-- Created with Inkscape (http://www.inkscape.org/) -->

<svg
   xmlns:dc="http://purl.org/dc/elements/1.1/"
   xmlns:cc="http://creativecommons.org/ns#"
   xmlns:rdf="http://www.w3.org/1999/02/22-rdf-syntax-ns#"
   xmlns:svg="http://www.w3.org/2000/svg"
   xmlns="http://www.w3.org/2000/svg"
   xmlns:sodipodi="http://sodipodi.sourceforge.net/DTD/sodipodi-0.dtd"
   xmlns:inkscape="http://www.inkscape.org/namespaces/inkscape"
   version="1.1"
   width="320"
   height="320"
   id="svg2"
   inkscape:version="0.92.4 (5da689c313, 2019-01-14)"
   sodipodi:docname="color-check.svg">
  <sodipodi:namedview
     pagecolor="#ffffff"
     bordercolor="#666666"
     borderopacity="1"
     objecttolerance="10"
     gridtolerance="10"
     guidetolerance="10"
     inkscape:pageopacity="0"
     inkscape:pageshadow="2"
     inkscape:window-width="1812"
     inkscape:window-height="940"
     id="namedview8"
     showgrid="false"
     inkscape:zoom="1.9999999"
     inkscape:cx="98.383815"
     inkscape:cy="155.02591"
     inkscape:window-x="30"
     inkscape:window-y="0"
     inkscape:window-maximized="1"
     inkscape:current-layer="svg2" />
  <defs
     id="defs4" />
  <metadata
     id="metadata7">
    <rdf:RDF>
      <cc:Work
         rdf:about="">
        <dc:format>image/svg+xml</dc:format>
        <dc:type
           rdf:resource="http://purl.org/dc/dcmitype/StillImage" />
        <dc:title />
      </cc:Work>
    </rdf:RDF>
  </metadata>
  <path
     style="fill:#000000;fill-opacity:1;fill-rule:nonzero;stroke:none;stroke-width:16"
     d="M 21.5,0 C 9.6813336,0 0,9.68128 0,21.5 v 277 C 0,310.31872 9.6813336,320 21.5,320 h 277 c 11.81867,0 21.5,-9.68128 21.5,-21.5 V 21.5 C 320,9.68128 310.31867,0 298.5,0 Z M 160,48 c 61.85589,0 112,50.14416 112,112 0,61.85584 -50.14411,112 -112,112 C 98.144107,272 48,221.85584 48,160 48,98.14416 98.144107,48 160,48 Z"
     id="rectangle"
     inkscape:connector-curvature="0" />
  <path
     style="fill:#000000;fill-opacity:1;fill-rule:nonzero;stroke:none;stroke-width:19.99424171"
     d="m 256,160 a 96,96 0 0 1 -96,96 96,96 0 0 1 -96,-96 96,96 0 0 1 96,-96 96,96 0 0 1 96,96 z"
     id="check" />
</svg>
